X: 35
T: Richard and Robin
N: Copyright, 1916, by The Cable Company.
C: words:Mother Goose
C: music: J. Heathcote
%R: air, waltz
B: "The Everyday Song Book", 1927
F: http://www.library.pitt.edu/happybirthday/pdf/The_Everyday_Song_Book.pdf
Z: 2017 John Chambers <jc:trillian.mit.edu>
M: 3/4
L: 1/4
K: Eb
% - - - - - - - - - - - - - - -
[| B B B | G G G | AAA | F2 F | B2 B |
w: Rich-ard and Rob-in were two pret-ty men; They lay in
%
   G G G | A2 A | F3 | G F E | G F E |
w: bed till the clock struck ten; Then up starts Rob-in and
%
   A G F | B3 | e d c | B A G | F E D | E3 |]
w: points to the sky: "Ho! Broth-er Rich-ard, the sun's ver-y high."
% - - - - - - - - - - - - - - -
